X:12027
T:Long Room of Scarborough, The
R:Slipjig
C:Trad.
O:England; Yorkshire
Z:Paul Hardy's Session Tunebook 2022 (see www.paulhardy.net). Creative Commons cc by-nc-sa licenced.
M:9/8
L:1/8
Q:3/8=100
K:G
"G"G2 G GBG Bcd|G2 G GBG "D"AFD|"G"G2 G GBG Bcd|"Em"E2 E "C"EFG "D"AFD:|
|:"G"g2 g "Em"gag "D"fed|"C"g2 g "G"gag "D"afd|"G"g2 g "Em"gag "D"fed|"C"efg "G"dcB "D"AFD:|
|:"G"BGB BGB "D7"c2 d|"G"BGB BGB "D"AFD|"G"BGB BGB "D7"c2 d|"Em"E>FE "C"EFG "D"AFD:|"G" "_Out"G6||

